DevCon_2019/Icons/SVG/icon_facebook.svg

<svg height="22" viewBox="0 0 12 22" width="12" xmlns="http://www.w3.org/2000/svg"><path d="m20.4081956 34.1249937v-9.3925557h-3.1581956v-3.732413h3.1581956v-2.9531179c0-1.5585901.4374992-2.7685481 1.3124969-3.6298742s2.0371047-1.2919891 3.4863198-1.2919891c1.1757786 0 2.1328074.0546872 2.8710869.1640621v3.3222577h-1.9687453c-.7382795 0-1.2441375.1640621-1.5175745.4921863-.2187493.2734371-.3281242.7109356-.3281242 1.3124969v2.5839782h3.4863198l-.4921864 3.732413h-2.9941334v9.3925557z" fill="#eef0f2" fill-rule="evenodd" transform="translate(-17 -13)"/></svg>

<?xml version="1.0" encoding="UTF-8"?>
<svg width="12px" height="22px" viewBox="0 0 12 22" version="1.1" xmlns="http://www.w3.org/2000/svg" xmlns:xlink="http://www.w3.org/1999/xlink">
    <!-- Generator: Sketch 52.6 (67491) - http://www.bohemiancoding.com/sketch -->
    <title></title>
    <desc>Created with Sketch.</desc>
    <g id="Page-1" stroke="none" stroke-width="1" fill="none" fill-rule="evenodd">
        <g id="DESKTOP-1024PX" transform="translate(-164.000000, -6793.000000)" fill="#EEF0F2">
            <g id="FOOTER" transform="translate(0.000000, 6331.000000)">
                <g id="COLUMN-#1" transform="translate(10.000000, 63.000000)">
                    <g id="FOLLOW-US" transform="translate(0.000000, 339.000000)">
                        <g id="FACEBOOK" transform="translate(137.000000, 47.000000)">
                            <path d="M20.4081956,34.1249937 L20.4081956,24.732438 L17.25,24.732438 L17.25,21.000025 L20.4081956,21.000025 L20.4081956,18.0469071 C20.4081956,16.488317 20.8456948,15.278359 21.7206925,14.4170329 C22.5956902,13.5557068 23.7577972,13.1250438 25.2070123,13.1250438 C26.3827909,13.1250438 27.3398197,13.179731 28.0780992,13.2891059 L28.0780992,16.6113636 L26.1093539,16.6113636 C25.3710744,16.6113636 24.8652164,16.7754257 24.5917794,17.1035499 C24.3730301,17.376987 24.2636552,17.8144855 24.2636552,18.4160468 L24.2636552,21.000025 L27.749975,21.000025 L27.2577886,24.732438 L24.2636552,24.732438 L24.2636552,34.1249937 L20.4081956,34.1249937 Z" id=""></path>
                        </g>
                    </g>
                </g>
            </g>
        </g>
    </g>
</svg>
